X:1
T:Lift Me Up to Walk with Thee
T:Lift Me Up to Walk with Thee
T:Henry Stephen Lowing
T:Henry Stephen Lowing, 1903
T:Public Domain Courtesy of the Cyber Hymnal™
T:Public Domain Courtesy of the Cyber Hymnal™
C:Henry Stephen Lowing
Z:Public Domain
Z:Courtesy of the Cyber Hymnal™
%%score ( 1 2 ) ( 3 4 )
L:1/8
Q:1/4=95
M:3/4
K:D
V:1 treble 
V:2 treble 
V:3 bass 
V:4 bass 
V:1
 D[DE] | [DF]3 [DA] [DB][DA] | [CA]2 [CG]2 [CE][CF] | [CG]3 [C^G] [CA][CE] | [DF]4 [DF][FA] | %5
w: 1.~Kind- ly|lead me, gen- tle|Sav- ior, Tho’ my|step un- stea- dy|be; If I|
w: 2.~Kind- ly|lead me, gen- tle|Sav- ior, Give me|faith to lean on|Thee; When my|
w: 3.~Kind- ly|lead me, gen- tle|Sav- ior, Day by|day re- mem- ber|me; Make me|
w: 4.~Kind- ly|lead me, gen- tle|Sav- ior, Let the|light en- cir- cle|me; Make me|
 [Fd]3 [Fc] [Fe][Fd] | [Gd]2 [GB]2 [^EB][Ed] | [Fd]3 [DF] [CF][CE] | D4 || %9
w: fal- ter by the|way- side, Lift me|up to walk with|Thee.|
w: heart is sad and|wea- ry, Lift me|up to walk with|Thee.|
w: one of Thy dis-|ci- ples, Lift me|up to walk with|Thee.|
w: pure, and make me|ho- ly, Lift me|up to walk with|Thee.|
[M:4/4]"^Refrain" [FA][Fd] | [Ec]4- [Ec][Ec][GB][Gc] | [Fd]6 [FA][FA] | [GB]4- [GB][Bd][Ac][GB] | %13
w: ~ ~|~ * ~ ~ ~|~ ~ ~|~ * ~ ~ ~|
w: Lift me|up * to walk with|Thee; Lift me|up * to walk with|
w: ~ ~|~ * ~ ~ ~|~ ~ ~|~ * ~ ~ ~|
w: ~ ~|~ * ~ ~ ~|~ ~ ~|~ * ~ ~ ~|
 [FA]6 [DF][EG] | [FA]3 [Fd] [Fe][Fd] | [Gd]2 [GB]2 [^EB][Ed] | [Fd]3 [DF] [CF][CE] | D4 |] %18
w: ~ If I|fal- ter by the|way- side, Lift me|up to walk with|Thee.|
w: Thee; When my|heart is sad and|wea- ry, Lift me|up to walk with|Thee.|
w: ~ Make me|one of Thy dis-|ci- ples, Lift me|up to walk with|Thee.|
w: ~ Make me|pure, and make me|ho- ly, Lift me|up to walk with|Thee.|
V:2
 D x | x6 | x6 | x6 | x6 | x6 | x6 | x6 | D4 ||[M:4/4] x2 | x8 | x8 | x8 | x8 | x6 | x6 | x6 | %17
 D4 |] %18
V:3
 [D,F,][D,G,] | [D,A,]3 [D,F,] [D,G,][D,F,] | [E,A,]2 A,2 [A,,A,][A,,A,] | %3
w: ~ ~|~ ~ ~ ~|~ ~ ~ ~|
 [A,,A,]3 [A,,A,] [A,,A,][A,,A,] | [D,A,]4 [D,A,][D,D] | [D,A,]3 [D,A,] [D,A,][D,A,] | %6
w: ~ ~ ~ ~|~ ~ ~|~ ~ ~ ~|
 [G,B,]2 [G,D]2 [^G,D][G,D] | [A,D]3 A, [A,,A,][A,,G,] | [D,F,]4 ||[M:4/4] z2 | %10
w: ~ ~ ~ ~|~ ~ ~ ~|~||
 z2 [A,,A,][A,,A,] [A,,A,][A,,A,][A,,A,][A,,A,] | [D,A,][D,D][F,D]A, [D,A,]2 z2 | %12
w: Lift me up, ~ ~ ~|~ to walk with Thee;|
 z2 [G,,G,][G,,G,] [G,,G,][G,,G,][G,,G,][G,,G,] | [D,A,][D,D][F,D]A, [D,A,]2 [D,A,][D,A,] | %14
w: Lift me up, ~ ~ ~|~ to walk with Thee; * *|
 [D,D]3 [D,A,] [D,A,][D,A,] | [G,B,]2 [G,D]2 [^G,D][G,D] | [A,D]3 A, [A,,A,][A,,G,] | [D,F,]4 |] %18
w: ||||
V:4
 x2 | x6 | x2 A,2 x2 | x6 | x6 | x6 | x6 | x3 A, x2 | x4 ||[M:4/4] x2 | x8 | x3 A, x4 | x8 | %13
 x3 A, x4 | x6 | x6 | x3 A, x2 | x4 |] %18

